images/reviews/Group-rigth.svg

<svg width="11" height="10" viewBox="0 0 11 10" fill="none" xmlns="http://www.w3.org/2000/svg">
<path d="M3.7966 0.00012207H1.26553C0.913954 0.00012207 0.615174 0.132713 0.369054 0.397819C0.123049 0.662975 0 0.984924 0 1.36379V4.09103C0 4.46987 0.122979 4.79177 0.369054 5.05687C0.615151 5.32195 0.914023 5.45459 1.26553 5.45459H2.74196C2.91766 5.45459 3.0671 5.52091 3.19015 5.65345C3.3132 5.78592 3.3747 5.94699 3.3747 6.13648V6.36362C3.3747 6.86555 3.20989 7.29392 2.88036 7.6491C2.5508 8.00411 2.15317 8.18168 1.68731 8.18168H1.26553C1.15121 8.18168 1.05238 8.22678 0.968853 8.31668C0.885397 8.40659 0.843634 8.51316 0.843634 8.63627V9.54547C0.843634 9.66839 0.885397 9.77516 0.968853 9.86508C1.05245 9.95496 1.15119 10.0001 1.26553 10.0001H1.68734C2.14437 10.0001 2.58049 9.90406 2.99576 9.71237C3.41101 9.52065 3.77021 9.26134 4.07342 8.93461C4.37656 8.60786 4.61717 8.22089 4.79511 7.77341C4.97304 7.32596 5.06204 6.85605 5.06204 6.36365V1.36369C5.06204 0.984825 4.93899 0.662901 4.69296 0.397794C4.44693 0.132688 4.14808 0.00012207 3.7966 0.00012207Z" fill="#F6762C"/>
<path d="M10.599 0.397697C10.353 0.132591 10.0542 0 9.7026 0H7.17164C6.82006 0 6.52128 0.132591 6.27526 0.397697C6.02925 0.662878 5.90625 0.984802 5.90625 1.36367V4.0909C5.90625 4.46974 6.02925 4.79164 6.27526 5.05675C6.52128 5.32183 6.82009 5.45447 7.17164 5.45447H8.64806C8.82377 5.45447 8.97332 5.52079 9.09634 5.65333C9.21925 5.78587 9.28089 5.94687 9.28089 6.13635V6.3635C9.28089 6.86543 9.11608 7.2938 8.78648 7.64898C8.45695 8.00399 8.05941 8.18156 7.59351 8.18156H7.17164C7.05741 8.18156 6.95849 8.22666 6.87505 8.31656C6.79155 8.40647 6.74974 8.51303 6.74974 8.63615V9.54535C6.74974 9.66826 6.79155 9.77503 6.87505 9.86496C6.95846 9.95484 7.05739 9.99996 7.17164 9.99996H7.59351C8.05048 9.99996 8.48657 9.90394 8.90189 9.71224C9.31707 9.52052 9.67622 9.26121 9.97945 8.93449C10.2827 8.60774 10.5234 8.22066 10.7012 7.77329C10.8791 7.32594 10.9682 6.85593 10.9682 6.36353V1.36357C10.9681 0.984703 10.8452 0.662779 10.599 0.397697Z" fill="#F6762C"/>
</svg>

<svg width="11" height="10" fill="none" xmlns="http://www.w3.org/2000/svg"><path d="M3.797 0H1.266C.914 0 .616.133.369.398.123.663 0 .985 0 1.364V4.09c0 .379.123.7.37.966.245.265.544.398.896.398h1.476a.59.59 0 0 1 .448.198.684.684 0 0 1 .185.483v.228c0 .502-.165.93-.495 1.285a1.57 1.57 0 0 1-1.193.533h-.421a.392.392 0 0 0-.297.135.454.454 0 0 0-.125.32v.908c0 .123.041.23.125.32.083.09.182.135.297.135h.421c.457 0 .893-.096 1.309-.288a3.396 3.396 0 0 0 1.077-.777c.304-.327.544-.714.722-1.162a3.78 3.78 0 0 0 .267-1.41v-5c0-.378-.123-.7-.369-.965A1.178 1.178 0 0 0 3.797 0ZM10.599.398A1.178 1.178 0 0 0 9.703 0H7.172c-.352 0-.65.133-.897.398a1.369 1.369 0 0 0-.369.966V4.09c0 .379.123.7.37.966.245.265.544.397.896.397h1.476a.59.59 0 0 1 .448.2.685.685 0 0 1 .185.482v.228c0 .501-.165.93-.495 1.285a1.57 1.57 0 0 1-1.192.533h-.422a.392.392 0 0 0-.297.135.454.454 0 0 0-.125.32v.908c0 .123.042.23.125.32.083.09.182.135.297.135h.422c.456 0 .893-.096 1.308-.288a3.397 3.397 0 0 0 1.077-.778c.304-.326.544-.713.722-1.16a3.78 3.78 0 0 0 .267-1.41v-5c0-.38-.123-.701-.369-.966Z" fill="#F6762C"/></svg>
